X: 23
T: A nar gu li ba la
L: 1/8
M: 2/4
K: C
z A,/ D/ [I:setbarnb 1]| 
D> D d d | 
d c/ d/ c B/ c/ | 
d> c e d | 
d2G G | 
A/ B/ G A3/ B/ | 
c/ d/ B/ c< A A/ | 
c B c e | 
d B/ d/ c A | 
A4- | 
A4- | 
A4- | 
Az2A,/ D/ | 
D D/ D/ D ^F/ G/ | 
B> d c B | 
B A A ^F | 
G ^F A3/ G/ | 
G2C C | 
D/ E/ C D3/ E/ | 
F/ G/ E/ F< D D/ | 
F E F A | 
G E F3/ D/ | 
D4- | 
D4- | 
D4- | 
Dz2A,/ D/ | 
D D/ D/ D ^F/ G/ | 
B> d c B | 
B A A ^F | 
G ^F A3/ G/ | 
G2C C | 
D/ E/ C D3/ E/ | 
F/ G/ E/ F< D D/ | 
F E F A | 
G E F3/ D/ | 
D4- | 
D4- | 
D4- | 
Dz3 |]

@@@ Tune index: 8691
